icons/shield40_ca_on_primary_toll.svg

<svg height="20" width="24" xmlns="http://www.w3.org/2000/svg">
 <path style="fill:#fff;stroke-width:.037" d="m 11.162109,-0.00390625 c -0.325676,0.003808692 -0.654325,0.33910192 -0.52539,0.66796875 -0.236185,0.0565198 -0.554941,0.22265532 -0.556641,0.546875 -0.0074,0.5289233 -0.005,1.0611316 -0.002,1.5898437 0.01809,0.2491035 0.208252,0.4008815 0.425781,0.5058594 0.02999,0.014475 0.02012,0.068619 0.0079,0.099609 -0.0359,0.091044 -0.229894,0.3501808 -0.988282,0.3710938 C 9.392491,3.7516038 8.876796,3.650362 8.140625,3.5234375 7.321246,3.3821671 6.515313,3.2301865 5.865234,3.2402344 5.767954,3.2297484 5.217949,3.1663594 4.449219,3.1875004 3.624878,3.2101694 2.650734,3.2199844 1.798828,3.9082035 c -0.05416,0.041524 -1.1736,0.908371 -1.341797,2.5273438 -0.101782,0.9797002 -0.24003,2.0733142 -0.197265,3.1152343 0.03448,0.8401694 0.288282,1.6800304 0.83789,2.3632804 l 0.482422,2.464844 c -0.282586,0.373178 -0.577177,0.910097 -0.607422,1.671875 -0.02973,0.748757 -0.03964,1.387144 0.07617,1.978516 0.05791,0.295686 0.141528,0.595267 0.375,0.902344 C 1.6573,19.238717 2.133205,19.5 2.558594,19.5 h 18.820312 c 0.381962,0 0.843297,-0.224671 1.078125,-0.511719 0.234829,-0.287048 0.319063,-0.568898 0.384766,-0.847656 0.131405,-0.557516 0.158745,-1.182023 0.185547,-2.019531 0.0263,-0.821894 -0.292474,-1.376109 -0.603516,-1.759766 l 0.478516,-2.451172 C 23.433469,11.25178 23.65842,10.443757 23.714844,9.5996094 23.786338,8.529988 23.683601,7.3772802 23.537109,6.3925781 23.30132,4.8076279 22.242463,3.9370097 22.216797,3.9160156 21.361343,3.2152551 20.38005,3.2103037 19.550781,3.1875 18.782018,3.1663601 18.232055,3.2297488 18.134766,3.2402344 17.484579,3.2301595 16.676774,3.3821602 15.857422,3.5234375 15.121385,3.6503492 14.60763,3.7515756 14.476562,3.7773438 13.717905,3.7564087 13.507317,3.4565129 13.490234,3.40625 c -0.02611,-0.076821 0.05595,-0.119536 0.08789,-0.1328124 0.344118,-0.1430342 0.376433,-0.5358873 0.345703,-0.8515625 -0.0036,-0.4181719 0.01111,-0.8364649 -0.0098,-1.2539062 C 13.882168,0.88798409 13.617795,0.69550193 13.363281,0.67578125 13.466706,0.42699598 13.306197,0.15483812 13.068359,0.05273437 12.811007,-0.04766567 12.52731,0.02306667 12.257812,0.00195313 11.914181,0.00220358 11.57007,0.00357339 11.226562,0 c -0.02156,-0.00278351 -0.04274,-0.00416016 -0.06445,-0.00390625 z"/>
 <path style="fill:#003f87;fill-opacity:1;fill-rule:nonzero;stroke:none;stroke-width:2.11042;stroke-miterlimit:4;stroke-dasharray:none" d="m 11.216797,0.50195312 c -0.0089,-2.2219e-4 -0.02216,0.001109 -0.03516,0.001953 -0.02622,0.002222 -0.05552,0.006422 -0.06641,0.0195313 0,0 -0.0456,0.0479396 0.03516,0.14257812 0,0 0.357531,0.50890606 0.43164,0.91015626 0,0 -0.187082,-0.015074 -0.767578,-0.3457031 0,0 -0.115158,-0.090412 -0.175781,-0.056641 0,0 -0.06055,0.013689 -0.06055,0.1015625 v 1.4472656 c 0,0 -0.0053,0.074345 0.04883,0.1015626 0,0 0.05215,0.03044 0.123047,-0.023438 0,0 0.43157,-0.3422269 0.863281,-0.4804687 0,0 -0.179505,0.5343918 -0.560547,0.8984375 0,0 -0.08039,0.090374 0.05469,0.1445312 L 11.5,3.3652344 C 11.501331,3.5896176 11.365678,3.8979838 11.316406,4 c -0.0958,0.1983388 -0.581884,0.7890625 -1.8222654,0.7890625 0,0 -2.8512828,-0.5647272 -3.6210937,-0.5507813 0,10e-8 -2.5684215,-0.2890724 -3.4667969,0.4550782 0,0 -0.824048,0.5844755 -0.9550781,1.8457031 -0.206008,1.9829265 -0.51192042,4.2445785 0.6074219,5.0800785 l 0.59375,3.035156 c 0,0 -0.6424575,0.497821 -0.6796876,1.435547 C 1.9152817,17.534947 1.9912743,18.5 2.5585938,18.5 H 21.378906 c 0.494197,0 0.595824,-0.766082 0.648438,-2.410156 0.02909,-0.908996 -0.679688,-1.435547 -0.679688,-1.435547 l 0.59375,-3.035156 C 22.925091,10.95627 22.827425,8.4117684 22.548828,6.5390625 22.362242,5.2848495 21.59375,4.6933594 21.59375,4.6933594 20.695708,3.9492088 18.126953,4.2382812 18.126953,4.2382812 17.35682,4.2243009 14.505859,4.7890625 14.505859,4.7890625 13.265154,4.7890625 12.80637,4.182869 12.683594,4 12.626938,3.9156133 12.508557,3.6112334 12.5,3.3652344 l 0.392578,-0.00195 C 13.027576,3.3090692 12.945312,3.21875 12.945312,3.21875 12.564008,2.8547013 12.384766,2.3203125 12.384766,2.3203125 12.816777,2.4585543 13.25,2.8007812 13.25,2.8007812 c 0.07088,0.053879 0.121094,0.023438 0.121094,0.023438 0.05388,-0.027217 0.05078,-0.1015626 0.05078,-0.1015626 v -1.447266 c 0,-0.087873 -0.06055,-0.1015625 -0.06055,-0.1015625 -0.06066,-0.033661 -0.175781,0.056641 -0.175781,0.056641 -0.580196,0.3306738 -0.769531,0.3457031 -0.769531,0.3457031 0.07443,-0.4012501 0.43164,-0.91015627 0.43164,-0.91015628 0.0811,-0.0946497 0.03711,-0.14257812 0.03711,-0.14257812 -0.022,-0.0266619 -0.115235,-0.0195313 -0.115235,-0.0195313 h -1.537109 c 0,0 -0.0061,-0.001764 -0.01563,-0.001953 z"/>
</svg>

<svg height="20" width="24" xmlns="http://www.w3.org/2000/svg">
 <path style="fill:#fff;stroke-width:.037" d="M11.162-.004c-.326.004-.654.34-.525.668-.236.057-.555.223-.557.547a81.017 81.017 0 0 0-.002 1.59c.018.249.208.4.426.506.03.014.02.068.008.1-.036.09-.23.35-.989.37a60.222 60.222 0 0 0-1.382-.254c-.82-.14-1.626-.293-2.276-.283-.097-.01-.647-.074-1.416-.052-.824.022-1.798.032-2.65.72-.054.042-1.174.909-1.342 2.528-.102.98-.24 2.073-.197 3.115.034.84.288 1.68.838 2.363l.482 2.465c-.283.373-.577.91-.607 1.672-.03.749-.04 1.387.076 1.978.058.296.141.596.375.903.233.307.71.568 1.135.568h18.82c.382 0 .843-.225 1.078-.512.235-.287.32-.569.385-.847.131-.558.159-1.182.185-2.02a2.552 2.552 0 0 0-.603-1.76l.478-2.45c.531-.66.756-1.467.813-2.311.071-1.07-.031-2.223-.178-3.207-.236-1.585-1.295-2.456-1.32-2.477-.856-.7-1.837-.706-2.666-.728-.769-.022-1.319.042-1.416.052-.65-.01-1.458.142-2.278.283-.736.127-1.25.229-1.38.254-.76-.02-.97-.32-.987-.37-.026-.078.056-.12.088-.134.344-.143.377-.535.346-.851-.004-.418.01-.837-.01-1.254-.032-.28-.296-.472-.55-.492.103-.249-.058-.521-.296-.623-.257-.1-.54-.03-.81-.051-.344 0-.688.002-1.031-.002a.458.458 0 0 0-.065-.004z"/>
 <path style="fill:#003f87;fill-opacity:1;fill-rule:nonzero;stroke:none;stroke-width:2.11042;stroke-miterlimit:4;stroke-dasharray:none" d="m11.217.502-.035.002c-.027.002-.056.006-.067.02 0 0-.045.047.035.142 0 0 .358.509.432.91 0 0-.187-.015-.768-.346 0 0-.115-.09-.175-.056 0 0-.06.014-.06.101v1.448s-.006.074.048.101c0 0 .052.03.123-.023 0 0 .432-.342.863-.48 0 0-.18.534-.56.898 0 0-.08.09.054.144l.393.002c.001.225-.134.533-.184.635-.095.198-.581.79-1.822.79 0 0-2.851-.566-3.621-.552 0 0-2.568-.289-3.467.455 0 0-.824.585-.955 1.846-.206 1.983-.512 4.245.608 5.08l.593 3.035s-.642.498-.68 1.436c-.057 1.445.02 2.41.587 2.41h18.82c.494 0 .596-.766.648-2.41.03-.91-.68-1.436-.68-1.436l.594-3.035c.984-.663.886-3.207.608-5.08-.187-1.254-.955-1.846-.955-1.846-.898-.744-3.467-.455-3.467-.455-.77-.014-3.621.551-3.621.551-1.24 0-1.7-.606-1.822-.789a1.574 1.574 0 0 1-.184-.635l.393-.002c.135-.054.052-.144.052-.144-.381-.364-.56-.899-.56-.899.432.139.865.48.865.48.07.055.121.024.121.024.054-.027.05-.101.05-.101V1.275c0-.087-.06-.101-.06-.101-.06-.034-.175.056-.175.056-.58.331-.77.346-.77.346.074-.401.432-.91.432-.91.08-.095.037-.143.037-.143-.022-.026-.115-.02-.115-.02h-1.538l-.015-.001z"/>
</svg>
